public/svg/enterprise_compliance/transaction-policy.svg

<svg width="60" height="57" viewBox="0 0 60 57" fill="none" xmlns="http://www.w3.org/2000/svg">
<g clip-path="url(#clip0_328_103866)">
<path d="M22.5805 35.2691C24.4328 27.623 28.1541 19.7812 27.5437 11.7728C27.4721 10.8482 27.9099 10.2402 28.5287 9.92788C25.5441 6.55461 21.1661 4.42236 16.2787 4.42236C7.28689 4.42236 0 11.6312 0 20.5266C0 29.4221 7.28689 36.6309 16.2787 36.6309C18.5056 36.6309 20.6272 36.1853 22.5637 35.3857C22.5721 35.3482 22.5721 35.3066 22.5847 35.2691H22.5805Z" fill="#4389FA" fill-opacity="0.25"/>
<path d="M37.8062 46.0471C34.148 45.26 30.4941 44.4771 26.8359 43.69C26.0866 43.5276 25.3625 43.3818 24.71 42.9529C23.4177 42.1033 22.7862 40.5166 23.0683 39.0257C23.1945 38.3469 23.3461 37.6764 23.485 37.0018C24.2975 33.0829 25.1057 29.1599 25.9182 25.2411C26.8864 20.5643 27.8504 15.8876 28.8186 11.215C29.2901 8.92862 29.7321 6.63813 30.2373 4.36013C30.5909 2.75678 31.879 1.48243 33.5503 1.26588C34.1607 1.18675 34.7374 1.29503 35.3267 1.41163C37.0611 1.76146 38.7955 2.11128 40.5256 2.46526C44.609 3.28984 48.6923 4.11858 52.7799 4.94316C53.4871 5.08475 54.1607 5.26799 54.7584 5.69694C55.975 6.57149 56.5602 8.09988 56.2823 9.5533C56.1139 10.4279 55.9203 11.2982 55.7393 12.1686C54.8342 16.5289 53.9291 20.885 53.0241 25.2453C52.2663 28.8976 51.5086 32.5457 50.7508 36.198C50.7088 36.3937 50.6709 36.5895 50.6288 36.7852C50.4646 37.5681 51.6812 37.9055 51.8454 37.1184C52.4263 34.3198 53.0072 31.5212 53.5882 28.7227C54.5774 23.9668 55.5625 19.215 56.5517 14.4591C56.838 13.0807 57.1242 11.7022 57.4105 10.3237C57.5073 9.85731 57.6041 9.39505 57.6168 8.91196C57.6589 7.14204 56.7201 5.45123 55.2215 4.50172C54.0302 3.74377 52.4347 3.59802 51.0708 3.32316C48.7765 2.85673 46.4781 2.39446 44.1838 1.92804C41.8896 1.46161 39.6542 1.01184 37.3895 0.55374C35.9203 0.258058 34.3669 -0.220863 32.8725 0.124793C31.1297 0.528753 29.7111 1.85308 29.1596 3.53138C29.0586 3.83956 28.9996 4.1519 28.9365 4.4684L28.1998 8.03325C27.2737 12.5101 26.3476 16.987 25.4214 21.468C24.4995 25.9241 23.5776 30.376 22.6599 34.832C22.42 35.9898 22.18 37.1517 21.9401 38.3094C21.8601 38.6884 21.7843 39.0632 21.7548 39.4463C21.6243 41.2163 22.5126 42.9404 23.9649 43.9565C24.7058 44.4729 25.5435 44.6937 26.4107 44.8769L29.1596 45.4683C31.4833 45.968 33.8113 46.4677 36.135 46.9675C36.5854 47.0633 37.0316 47.1591 37.4821 47.2548C38.2735 47.4256 38.6145 46.222 37.8188 46.0513L37.8062 46.0471Z" fill="#252B37"/>
<path d="M46.2169 5.90933C44.9203 5.64697 43.6238 5.3846 42.3314 5.12224C41.6663 4.98897 41.0222 4.87653 40.5213 4.37262C39.7804 3.62717 39.873 2.72763 40.0666 1.79477L39.2878 2.23205C42.2304 2.82758 45.1687 3.4231 48.1112 4.01863C48.528 4.10192 48.9448 4.18938 49.3657 4.27267L48.9237 3.50223C48.8058 4.07277 48.7259 4.65997 48.3428 5.1264C47.8334 5.75108 47.0125 6.05093 46.2169 5.90933C45.4213 5.76774 45.0803 6.97129 45.8801 7.11288C47.0336 7.31695 48.1954 7.02959 49.05 6.20501C49.732 5.54702 49.9551 4.71828 50.1403 3.83123C50.2034 3.51889 50.0519 3.13575 49.6983 3.06079C46.7557 2.46526 43.8174 1.86973 40.8749 1.2742C40.4581 1.19091 40.0414 1.10346 39.6204 1.02017C39.3047 0.957699 38.9174 1.10762 38.8416 1.45744C38.6059 2.5902 38.5006 3.68131 39.1826 4.70578C39.7593 5.56784 40.6181 6.04676 41.62 6.24666C43.0386 6.53401 44.4573 6.82137 45.8759 7.10872C46.6673 7.27114 47.0083 6.06342 46.2127 5.90517L46.2169 5.90933Z" fill="#252B37"/>
<path d="M41.4009 26.882C45.3858 26.882 48.6162 23.6862 48.6162 19.744C48.6162 15.8018 45.3858 12.606 41.4009 12.606C37.416 12.606 34.1855 15.8018 34.1855 19.744C34.1855 23.6862 37.416 26.882 41.4009 26.882Z" fill="url(#paint0_linear_328_103866)"/>
<path d="M38.4343 19.0984C38.8216 19.9147 39.2046 20.7267 39.5919 21.543C39.7393 21.8595 40.1771 21.9136 40.4549 21.7679C42.0588 20.9266 43.6669 20.0896 45.2707 19.2483C45.498 19.1317 45.7254 19.011 45.9527 18.8944C46.6725 18.5195 46.0327 17.4409 45.317 17.8157C43.7132 18.657 42.1051 19.494 40.5012 20.3353C40.2739 20.4519 40.0466 20.5727 39.8192 20.6893L40.6822 20.9142C40.2949 20.0979 39.9119 19.2858 39.5246 18.4696C39.3814 18.1656 38.9352 18.0864 38.6616 18.2447C38.3459 18.4279 38.2911 18.7944 38.4343 19.0984Z" fill="white"/>
<path d="M52.2337 40.0545C48.7607 39.6339 46.8159 36.1481 45.153 33.5203C44.2101 32.0336 43.1956 30.5593 41.8358 29.4141C40.5814 28.3605 39.0238 27.386 37.3442 27.236C35.6645 27.0861 34.3553 28.1231 34.1701 29.7639C33.9764 31.4922 35.1257 33.0664 35.8582 34.5448C36.6917 36.2314 37.4031 37.9972 37.7104 39.8587C38.0177 41.7203 37.6683 43.4861 37.2852 45.306C36.9021 47.1259 36.5527 49.1831 37.3863 50.9989C37.8072 51.9109 38.5144 52.6272 39.0827 53.4393C39.6047 54.1806 40.0888 55.1926 39.5963 56.0629C39.1964 56.7626 40.2867 57.3956 40.6866 56.6918C41.5622 55.1468 40.7371 53.5059 39.7521 52.2441C39.2132 51.5528 38.6281 50.8739 38.3545 50.0327C38.0977 49.2373 38.0851 48.4085 38.165 47.584C38.3376 45.8515 38.9059 44.1857 39.0617 42.4532C39.2175 40.7208 38.8975 38.8759 38.3292 37.1893C37.7609 35.5026 36.8937 33.8202 36.056 32.1877C35.6856 31.4714 35.3235 30.6718 35.4246 29.8472C35.5172 29.1184 35.9929 28.5687 36.7464 28.4812C38.2997 28.3022 39.9752 29.4599 41.0781 30.4136C42.3873 31.5505 43.3387 32.9956 44.2522 34.449C46.1465 37.4641 48.3524 40.8332 52.2379 41.3038C53.0419 41.3996 53.0335 40.1503 52.2379 40.0545H52.2337Z" fill="#252B37"/>
<path d="M53.1249 26.9568C54.1016 28.2811 55.4655 29.1598 56.6947 30.2259C57.2967 30.7465 57.8608 31.317 58.2354 32.025C58.6901 32.8704 58.7743 33.8449 58.7195 34.7819C58.5975 36.885 57.9155 38.9714 57.3556 40.9871C56.7957 43.0027 56.2316 45.0891 55.9791 47.2047C55.8443 48.3416 55.8023 49.4952 55.9075 50.6405C55.9622 51.2318 56.0506 51.8232 56.1811 52.4021C56.2948 52.9018 56.3706 53.514 56.8589 53.7847C57.1115 53.9263 57.4145 53.8805 57.625 53.6889C57.8523 53.4765 57.8692 53.2516 57.8271 52.9601C57.785 52.6686 57.4693 52.5353 57.2167 52.502L57.1662 52.4937C56.3621 52.3896 56.3706 53.6431 57.1662 53.743L57.2167 53.7514L56.6063 53.2933L56.6147 53.3682L56.7789 52.7602L56.7284 52.806L57.4945 52.7102C57.604 52.7685 57.444 52.2688 57.4188 52.1647C57.3598 51.919 57.3093 51.6691 57.2672 51.4192C57.183 50.9112 57.1367 50.3989 57.1199 49.8825C57.082 48.8539 57.1493 47.8211 57.2967 46.8008C57.5998 44.7102 58.1975 42.6779 58.7616 40.6456C59.3257 38.6133 59.9151 36.6476 59.9908 34.6028C60.0582 32.7954 59.4604 31.1838 58.1807 29.8928C56.901 28.6017 55.2803 27.7647 54.2152 26.3279C53.7395 25.6866 52.645 26.3071 53.1249 26.9568Z" fill="#252B37"/>
<path d="M48.9037 39.2132C50.6886 38.576 52.2882 37.4683 53.4501 35.9815C53.6606 35.715 53.7111 35.3568 53.4501 35.0986C53.2312 34.8821 52.7681 34.8321 52.5576 35.0986C52.2924 35.4401 52.0062 35.7608 51.6947 36.0606C51.5389 36.2106 51.3789 36.3563 51.2148 36.4938C51.1348 36.5604 51.0548 36.6229 50.9748 36.6895C50.9201 36.7311 50.8738 36.7644 50.777 36.8394C50.436 37.0851 50.0782 37.31 49.7035 37.5057C49.5141 37.6057 49.3162 37.7015 49.1184 37.7931C48.9963 37.8472 49.0215 37.8389 48.891 37.8889C48.7858 37.9305 48.6764 37.9722 48.5711 38.0096C48.2512 38.1221 48.0365 38.4344 48.1291 38.7801C48.2133 39.0883 48.5837 39.3298 48.9079 39.2174L48.9037 39.2132Z" fill="#252B37"/>
<path d="M18.0337 19H11.6667C10.7462 19 10 18.2538 10 17.3333C10 16.4129 10.7462 15.6667 11.6667 15.6667H18.0337M13.9663 26.3333H20.3333C21.2538 26.3333 22 25.5871 22 24.6667C22 23.7462 21.2538 23 20.3333 23H13.9663M10 24.6667C10 25.9553 11.0447 27 12.3333 27C13.622 27 14.6667 25.9553 14.6667 24.6667C14.6667 23.378 13.622 22.3333 12.3333 22.3333C11.0447 22.3333 10 23.378 10 24.6667ZM22 17.3333C22 18.622 20.9553 19.6667 19.6667 19.6667C18.378 19.6667 17.3333 18.622 17.3333 17.3333C17.3333 16.0447 18.378 15 19.6667 15C20.9553 15 22 16.0447 22 17.3333Z" stroke="#252B37" stroke-width="1.33333" stroke-linecap="round" stroke-linejoin="round"/>
</g>
<defs>
<linearGradient id="paint0_linear_328_103866" x1="41.4009" y1="12.606" x2="41.4009" y2="26.882" gradientUnits="userSpaceOnUse">
<stop stop-color="#3B82F6"/>
<stop offset="1" stop-color="#9DC1FB"/>
</linearGradient>
<clipPath id="clip0_328_103866">
<rect width="60" height="57" fill="white"/>
</clipPath>
</defs>
</svg>

<svg xmlns="http://www.w3.org/2000/svg" width="60" height="57" fill="none" viewBox="0 0 60 57"><g clip-path="url(#a)"><path fill="#4389fa" fill-opacity=".25" d="M22.58 35.27c1.853-7.647 5.574-15.489 4.964-23.497-.072-.925.366-1.533.985-1.845a16.3 16.3 0 0 0-12.25-5.506C7.287 4.422 0 11.632 0 20.527S7.287 36.63 16.279 36.63c2.227 0 4.348-.446 6.285-1.245.008-.038.008-.08.02-.117z"/><path fill="#252b37" d="m37.806 46.047-10.97-2.357c-.75-.162-1.473-.308-2.126-.737-1.292-.85-1.924-2.436-1.642-3.927.127-.68.278-1.35.417-2.024.813-3.92 1.62-7.842 2.433-11.76.968-4.678 1.932-9.354 2.9-14.027.472-2.286.914-4.577 1.42-6.855.353-1.603 1.641-2.878 3.312-3.094.61-.08 1.187.029 1.777.146q2.602.524 5.199 1.053c4.083.825 8.166 1.654 12.254 2.478.707.142 1.38.325 1.978.754 1.217.874 1.802 2.403 1.524 3.856-.168.875-.362 1.745-.543 2.616l-2.715 13.076-2.273 10.953c-.042.196-.08.392-.122.587-.164.783 1.052 1.12 1.216.333l1.743-8.395c.99-4.756 1.974-9.508 2.964-14.264l.858-4.135c.097-.467.194-.929.207-1.412.042-1.77-.897-3.46-2.395-4.41-1.192-.758-2.787-.904-4.151-1.179-2.294-.466-4.593-.929-6.887-1.395s-4.53-.916-6.794-1.374c-1.47-.296-3.023-.775-4.517-.43a5.18 5.18 0 0 0-3.713 3.407c-.101.309-.16.62-.224.937L28.2 8.033l-2.78 13.435c-.921 4.456-1.843 8.908-2.761 13.364l-.72 3.477c-.08.38-.156.754-.185 1.137-.13 1.77.758 3.494 2.21 4.51.74.517 1.579.738 2.446.92l2.749.592 6.975 1.5 1.347.287c.791.17 1.133-1.033.337-1.204z"/><path fill="#252b37" d="m46.217 5.91-3.886-.788c-.665-.133-1.309-.245-1.81-.75-.74-.745-.648-1.644-.454-2.577l-.78.437 8.824 1.787 1.255.254-.442-.77c-.118.57-.198 1.157-.581 1.623-.51.625-1.33.925-2.126.783-.796-.141-1.137 1.062-.337 1.204 1.154.204 2.315-.083 3.17-.908.682-.658.905-1.487 1.09-2.374.063-.312-.088-.695-.442-.77l-8.823-1.787-1.255-.254c-.315-.062-.703.088-.778.437-.236 1.133-.341 2.224.34 3.249.577.862 1.436 1.34 2.438 1.54l4.256.863c.791.162 1.132-1.046.337-1.204z"/><path fill="url(#b)" d="M41.4 26.882c3.986 0 7.216-3.196 7.216-7.138s-3.23-7.138-7.215-7.138-7.216 3.196-7.216 7.138 3.231 7.138 7.216 7.138"/><path fill="#fff" d="M38.434 19.098c.388.817.77 1.629 1.158 2.445.147.317.585.37.863.225 1.604-.841 3.212-1.678 4.816-2.52.227-.116.454-.237.682-.354.72-.374.08-1.453-.636-1.078-1.604.841-3.212 1.678-4.816 2.52-.227.116-.454.237-.682.353l.863.225-1.157-2.444c-.144-.304-.59-.384-.863-.225-.316.183-.37.55-.228.853"/><path fill="#252b37" d="M52.234 40.055c-3.473-.421-5.418-3.907-7.081-6.535-.943-1.486-1.957-2.96-3.317-4.106-1.255-1.054-2.812-2.028-4.492-2.178s-2.989.887-3.174 2.528c-.194 1.728.956 3.302 1.688 4.78.834 1.687 1.545 3.453 1.852 5.315.308 1.861-.042 3.627-.425 5.447s-.732 3.877.101 5.693c.421.912 1.128 1.628 1.697 2.44.522.742 1.006 1.754.513 2.624-.4.7.69 1.333 1.09.629.876-1.545.051-3.186-.934-4.448-.539-.691-1.124-1.37-1.398-2.211-.256-.796-.269-1.625-.189-2.449.173-1.733.74-3.398.897-5.13.156-1.733-.164-3.578-.733-5.265-.568-1.686-1.435-3.369-2.273-5.001-.37-.717-.732-1.516-.631-2.34.092-.73.568-1.28 1.321-1.367 1.554-.179 3.23.979 4.332 1.933 1.31 1.136 2.26 2.582 3.174 4.035 1.895 3.015 4.1 6.384 7.986 6.855.804.096.795-1.154 0-1.25zm.891-13.098c.977 1.324 2.34 2.203 3.57 3.269.602.52 1.166 1.091 1.54 1.799.455.845.54 1.82.484 2.757-.122 2.103-.803 4.19-1.363 6.205-.56 2.016-1.124 4.102-1.377 6.218a16.4 16.4 0 0 0-.072 3.436c.055.59.144 1.182.274 1.761.114.5.19 1.112.678 1.383a.655.655 0 0 0 .766-.096c.227-.212.244-.437.202-.729-.042-.291-.358-.425-.61-.458l-.05-.008c-.805-.104-.796 1.15 0 1.249l.05.008-.61-.458.008.075.164-.608-.05.046.766-.096c.109.059-.051-.441-.076-.545q-.09-.37-.152-.746c-.084-.508-.13-1.02-.147-1.536-.038-1.03.03-2.062.177-3.082.303-2.09.9-4.123 1.465-6.155.564-2.033 1.153-3.998 1.229-6.043.067-1.808-.53-3.42-1.81-4.71s-2.9-2.128-3.966-3.565c-.476-.641-1.57-.02-1.09.629"/><path fill="#252b37" d="M48.904 39.213c1.785-.637 3.384-1.745 4.546-3.232.21-.266.261-.624 0-.882-.219-.217-.682-.267-.892 0a9 9 0 0 1-1.343 1.395l-.24.196c-.055.041-.101.074-.198.15-.341.245-.699.47-1.074.666-.189.1-.387.196-.585.287-.122.054-.096.046-.227.096a10 10 0 0 1-.32.12c-.32.113-.535.425-.442.771.084.308.455.55.779.437z"/><path stroke="#252b37" stroke-linecap="round" stroke-linejoin="round" stroke-width="1.333" d="M18.034 19h-6.367a1.667 1.667 0 1 1 0-3.333h6.367m-4.068 10.666h6.367a1.667 1.667 0 1 0 0-3.333h-6.367M10 24.667a2.333 2.333 0 1 0 4.667 0 2.333 2.333 0 0 0-4.667 0m12-7.334a2.333 2.333 0 1 1-4.667 0 2.333 2.333 0 0 1 4.667 0"/></g><defs><linearGradient id="b" x1="41.401" x2="41.401" y1="12.606" y2="26.882" gradientUnits="userSpaceOnUse"><stop stop-color="#3b82f6"/><stop offset="1" stop-color="#9dc1fb"/></linearGradient><clipPath id="a"><path fill="#fff" d="M0 0h60v57H0z"/></clipPath></defs></svg>
